bookmark-outline.svg

<svg fill="currentColor" viewBox="0 0 24 24"><path d="m17 18-5-2.18L7 18V5h10m0-2H7a2 2 0 0 0-2 2v16l7-3 7 3V5a2 2 0 0 0-2-2"/></svg>

<svg  viewBox="0 0 24 24" fill="currentColor"><path  d="M17,18L12,15.82L7,18V5H17M17,3H7A2,2 0 0,0 5,5V21L12,18L19,21V5C19,3.89 18.1,3 17,3Z"/></svg>
